src/images/clock.svg

<svg fill="none" version="1.1" viewBox="0 0 31.991 31.991" xmlns="http://www.w3.org/2000/svg">
 <g transform="translate(-6.1518 -7.0043)" clip-path="url(#a)" fill="#ffc444">
  <path d="m22.902 16.682 0.359 5.5655 5.7051 3.7303c0.5737 0.3751 0.7342 1.1419 0.3591 1.7155-0.3751 0.5737-1.1419 0.7342-1.7155 0.3591l-6.2239-4.0694c-0.3267-0.2136-0.5344-0.5686-0.5585-0.9575l-0.399-6.1839c-0.018-0.2783 0.0571-0.5402 0.1988-0.757 0.2069-0.3164 0.5525-0.5346 0.9593-0.5589 0.6827-0.0453 1.272 0.4733 1.3156 1.1563z"/>
  <path d="m35.539 31.756c-4.8283 7.3846-14.763 9.4639-22.148 4.6356-7.3845-4.8284-9.4639-14.763-4.6355-22.148 4.8283-7.3846 14.763-9.4639 22.148-4.6356 7.3845 4.8284 9.4639 14.763 4.6355 22.147zm-24.708-16.156c-4.0796 6.2394-2.322 14.637 3.9174 18.716 6.2393 4.0796 14.637 2.3219 18.716-3.9174 4.0803-6.2404 2.322-14.637-3.9174-18.716-6.2393-4.0795-14.637-2.3219-18.716 3.9174z"/>
 </g>
 <defs>
  <clipPath id="a">
   <rect transform="matrix(.54725 -.83697 -.83697 -.54725 26.783 45.148)" width="32" height="32" fill="#fff"/>
  </clipPath>
 </defs>
</svg>

<svg width="45" height="46" viewBox="0 0 45 46" fill="none" xmlns="http://www.w3.org/2000/svg">
<g clip-path="url(#clip0)">
<path d="M22.9022 16.6818L23.2612 22.2473L28.9663 25.9776C29.54 26.3527 29.7005 27.1195 29.3254 27.6931C28.9503 28.2668 28.1835 28.4273 27.6099 28.0522L21.386 23.9828C21.0593 23.7692 20.8516 23.4142 20.8275 23.0253L20.4285 16.8414C20.4105 16.5631 20.4856 16.3012 20.6273 16.0844C20.8342 15.768 21.1798 15.5498 21.5866 15.5255C22.2693 15.4802 22.8586 15.9988 22.9022 16.6818Z" fill="#FFC444"/>
<path d="M35.539 31.7559C30.7107 39.1405 20.776 41.2198 13.3915 36.3915C6.00698 31.5631 3.92764 21.6285 8.75598 14.244C13.5843 6.85944 23.519 4.7801 30.9035 9.60844C38.288 14.4368 40.3674 24.3714 35.539 31.7559ZM10.8306 15.6004C6.751 21.8398 8.50862 30.2373 14.748 34.3169C20.9873 38.3965 29.3849 36.6388 33.4644 30.3995C37.5447 24.1591 35.7864 15.7626 29.547 11.683C23.3077 7.60346 14.9101 9.36108 10.8306 15.6004Z" fill="#FFC444"/>
</g>
<defs>
<clipPath id="clip0">
<rect width="32" height="32" fill="white" transform="matrix(0.547249 -0.83697 -0.83697 -0.547249 26.783 45.1475)"/>
</clipPath>
</defs>
</svg>
